src/assets/icons/linkedin_icon.svg

<svg width="54" height="54" viewBox="0 0 54 54" fill="none" xmlns="http://www.w3.org/2000/svg">
<path d="M50.3333 0.75H3.66667C2.89312 0.75 2.15125 1.05729 1.60427 1.60427C1.05729 2.15125 0.75 2.89312 0.75 3.66667V50.3333C0.75 51.1069 1.05729 51.8488 1.60427 52.3957C2.15125 52.9427 2.89312 53.25 3.66667 53.25H50.3333C51.1069 53.25 51.8488 52.9427 52.3957 52.3957C52.9427 51.8488 53.25 51.1069 53.25 50.3333V3.66667C53.25 2.89312 52.9427 2.15125 52.3957 1.60427C51.8488 1.05729 51.1069 0.75 50.3333 0.75ZM16.3221 45.4829H8.52875V20.4287H16.3221V45.4829ZM12.4254 17.0075C11.228 17.0075 10.0796 16.5318 9.23283 15.6851C8.3861 14.8384 7.91042 13.69 7.91042 12.4925C7.91042 11.295 8.3861 10.1466 9.23283 9.29991C10.0796 8.45319 11.228 7.9775 12.4254 7.9775C13.6229 7.9775 14.7713 8.45319 15.618 9.29991C16.4647 10.1466 16.9404 11.295 16.9404 12.4925C16.9404 13.69 16.4647 14.8384 15.618 15.6851C14.7713 16.5318 13.6229 17.0075 12.4254 17.0075ZM45.4858 45.4829H37.7012V33.3C37.7012 30.395 37.6488 26.6588 33.6529 26.6588C29.5988 26.6588 28.9833 29.8263 28.9833 33.0958V45.4858H21.2046V20.4317H28.6713V23.8558H28.7792C29.8146 21.8871 32.3579 19.8104 36.1408 19.8104C44.0275 19.8104 45.4829 24.9963 45.4829 31.7454V45.4829H45.4858Z" fill="#CCCCCC"/>
</svg>

<svg xmlns="http://www.w3.org/2000/svg" width="54" height="54" fill="none"><path fill="#CCC" d="M50.333.75H3.667A2.917 2.917 0 0 0 .75 3.667v46.666a2.916 2.916 0 0 0 2.917 2.917h46.666a2.916 2.916 0 0 0 2.917-2.917V3.667A2.917 2.917 0 0 0 50.333.75Zm-34.01 44.733H8.528V20.429h7.793v25.054Zm-3.898-28.475a4.515 4.515 0 1 1 0-9.031 4.515 4.515 0 0 1 0 9.03Zm33.06 28.475h-7.784V33.3c0-2.905-.052-6.641-4.048-6.641-4.054 0-4.67 3.167-4.67 6.437v12.39h-7.778V20.432h7.466v3.424h.108c1.036-1.969 3.579-4.046 7.362-4.046 7.887 0 9.342 5.186 9.342 11.935v13.738h.003Z"/></svg>
